!!!COM: Landini, Francesco
!!!CDT: ~1325///-1397/09/02/
!!!OTL: Deh! dimmi tu
!!!ONB: from the Squarcialupi Codex
!!!AGN: madrigal
!!!URL: http://www.cpdl.org/modules.php?op=modload&name=Downloads&file=index&req=viewsdownload&sid=686
!!!ONB: CPDL.org; edited by Sabine Cassola; added on 2004/02/08/
**kern	**text	**kern	**text	**kern	**text
*staff3	*staff3	*staff2	*staff2	*staff1	*staff1
*Ivox	*Ivox	*Ivox	*Ivox	*Ivox	*Ivox
*clefGv2	*	*clefG2	*	*clefG2	*
*k[]	*	*k[]	*	*k[]	*
*M4/2	*	*M4/2	*	*M4/2	*
*MM240	*MM240	*MM240	*MM240	*MM240	*MM240
=1-	=1-	=1-	=1-	=1-	=1-
0r	.	0r	.	0g	Deh!
=2	=2	=2	=2	=2	=2
0r	.	0r	.	4g/	dim-
.	.	.	.	4f/	.
.	.	.	.	4e/	-mi
.	.	.	.	4f/	.
.	.	.	.	2d/	tu
.	.	.	.	2g/	che
=3	=3	=3	=3	=3	=3
0r	.	0r	.	2f/	se'
.	.	.	.	2a/	co-
.	.	.	.	6b-\	-sì
.	.	.	.	6a/	.
.	.	.	.	6g/	.
.	.	.	.	4a/	fre-
.	.	.	.	4f/	.
=4	=4	=4	=4	=4	=4
0r	.	0r	.	1g	gia
.	.	.	.	2r	.
.	.	.	.	4b-\	.
.	.	.	.	4cc\	.
=5	=5	=5	=5	=5	=5
0r	.	0r	.	4dd\	.
.	.	.	.	4cc\	.
.	.	.	.	4b-\	.
.	.	.	.	4a/	.
.	.	.	.	2g/	.
.	.	.	.	2f/	.
=6	=6	=6	=6	=6	=6
0r	.	0r	.	4a/	.
.	.	.	.	4g/	.
.	.	.	.	4f/	.
.	.	.	.	4e/	.
.	.	.	.	1d	.
=7	=7	=7	=7	=7	=7
0r	.	0r	.	2e/	.
.	.	.	.	1d	.
.	.	.	.	2c/	.
=8	=8	=8	=8	=8	=8
0G	Deh!	0r	.	0d	-to
=9	=9	=9	=9	=9	=9
2B-\	dim-	0r	.	0r	.
2A/	-mi	.	.	.	.
2G/	tu	.	.	.	.
2B-\	che	.	.	.	.
=10	=10	=10	=10	=10	=10
1A	se'	0r	.	1a	Di
1G	co-	.	.	2r	.
.	.	.	.	2b-\	.
=11	=11	=11	=11	=11	=11
1F	-sì	0r	.	4a/	.
.	.	.	.	4g/	.
.	.	.	.	4f/	.
.	.	.	.	4g/	.
1A	fre-	.	.	2e/	.
.	.	.	.	2f/	.
=12	=12	=12	=12	=12	=12
0G	gia	0d	Deh!	1g	per-
.	.	.	.	1g	-le
=13	=13	=13	=13	=13	=13
2d\	.	2f/	dim-	1a	d'o-
2c\	.	2e/	-mi	.	.
2r	.	2d/	tu	4a/	-ro,
.	.	.	.	4g/	.
2d\	.	2f/	che	4f/	.
.	.	.	.	4g/	.
=14	=14	=14	=14	=14	=14
2A/	.	1e	se'	2a/	quan-
2c\	.	.	.	2a/	-do
2r	.	1d	co-	2b\	tu
2B\	.	.	.	2b\	ti
=15	=15	=15	=15	=15	=15
0c	-to	1c	-sì	1cc	ve-
.	.	1e	fre-	2r	.
.	.	.	.	4cc\	.
.	.	.	.	4b-\	.
=16	=16	=16	=16	=16	=16
0r	.	0d	gia	4a/	.
.	.	.	.	4b-\	.
.	.	.	.	4g/	.
.	.	.	.	4a/	.
.	.	.	.	2bn\	.
.	.	.	.	2a/	.
=17	=17	=17	=17	=17	=17
0c	Di	2a/	.	0cc	-di,
.	.	2g/	.	.	.
.	.	2r	.	.	.
.	.	2a/	.	.	.
=18	=18	=18	=18	=18	=18
2A/	.	2f/	.	0r	.
2c\	.	2g/	.	.	.
2B-\	.	2r	.	.	.
2A/	.	2f#/	.	.	.
=19	=19	=19	=19	=19	=19
1G	per-	0g	-to	4dd\	Chi
.	.	.	.	4cc\	.
.	.	.	.	4b-\	.
.	.	.	.	4a/	.
1G	-le	.	.	2g/	.
.	.	.	.	2f/	.
=20	=20	=20	=20	=20	=20
1A	d'o-	0r	.	2e/	.
.	.	.	.	4d/	.
.	.	.	.	2e/	.
1A	-ro,	.	.	.	.
.	.	.	.	2d/	.
.	.	.	.	4c/	.
=21	=21	=21	=21	=21	=21
2G/	quan-	0g	Di	1d	ti
2G/	-do	.	.	.	.
2G/	tu	.	.	4g/	par-
.	.	.	.	4f/	.
2G/	ti	.	.	4e/	.
.	.	.	.	4f/	.
=22	=22	=22	=22	=22	=22
1c	ve-	2e/	.	1g	es
.	.	2g/	.	.	.
2r	.	2f/	.	1g	-ser,
2G/	.	2e/	.	.	.
=23	=23	=23	=23	=23	=23
1d	.	1d	per-	2f/	par
.	.	.	.	2f/	a-
2c\	.	1d	-le	2g/	-ver
2B-\	.	.	.	2g/	non
=24	=24	=24	=24	=24	=24
0A	-di,	1e	d'o-	1a	cre-
.	.	1e	-ro,	2r	.
.	.	.	.	4b\	.
.	.	.	.	4cc\	.
=25	=25	=25	=25	=25	=25
0r	.	2d/	quan-	2dd\	.
.	.	2d/	-do	2.a/	.
.	.	2d/	tu	.	.
.	.	.	.	2g/	.
.	.	2d/	ti	.	.
.	.	.	.	4f/	.
=26	=26	=26	=26	=26	=26
0G	Chi	1g	ve-	0g	-di
.	.	2r	.	.	.
.	.	2d/	.	.	.
=27	=27	=27	=27	=27	=27
1F	.	1a	.	0r	.
1G	.	2g/	.	.	.
.	.	2f/	.	.	.
=28	=28	=28	=28	=28	=28
1A	ti	0e	-di,	2.a/	Ric-
.	.	.	.	2g/	.
2B\	par-	.	.	.	.
.	.	.	.	2f/	.
2c#\	.	.	.	.	.
.	.	.	.	4e/	.
=29	=29	=29	=29	=29	=29
1d	es	0r	.	2d/	.
.	.	.	.	2e/	.
1d	-ser,	.	.	4f/	.
.	.	.	.	4g/	.
.	.	.	.	4e/	.
.	.	.	.	4f/	.
=30	=30	=30	=30	=30	=30
2G/	par	0d	Chi	2g/	-c'a
2G/	a-	.	.	2g/	ca-
2G/	-ver	.	.	2g/	val
2G/	non	.	.	2g/	-lo
=31	=31	=31	=31	=31	=31
1c	cre-	1c	.	2a/	ben
.	.	.	.	2g/	ac-
1B-	.	1d	.	2f/	com
.	.	.	.	2g/	pa
=32	=32	=32	=32	=32	=32
2A/	.	1e	ti	1a	gna
2B-\	.	.	.	.	.
2A/	.	2f/	par-	2r	.
2G/	.	2g/	.	2b-\	.
=33	=33	=33	=33	=33	=33
0F	-di	1a	es	1cc	.
.	.	1a	-ser,	2r	.
.	.	.	.	4b-\	.
.	.	.	.	4cc\	.
=34	=34	=34	=34	=34	=34
0r	.	2d/	par	2dd\	.
.	.	2d/	a-	1a	.
.	.	2d/	-ver	.	.
.	.	2d/	non	2b\	.
=35	=35	=35	=35	=35	=35
1c	Ric-	1g	cre-	0cc	-to?
2r	.	1f	.	.	.
2d\	.	.	.	.	.
=36	=36	=36	=36	=36	=36
1A	.	2e/	.	0r	.
.	.	2f/	.	.	.
2r	.	2e/	.	.	.
2B\	-c'a	2d/	.	.	.
=37	=37	=37	=37	=37	=37
0c	ca-	0c	-di	1.g	Ma
.	.	.	.	[2a/	.
=38	=38	=38	=38	=38	=38
2F/	val	0r	.	2a/]	.
2F/	.	.	.	1f	.
2F/	-lo	.	.	.	.
2F/	.	.	.	2e/	.
=39	=39	=39	=39	=39	=39
2G/	ben	1g	Ric-	1d	un
2G/	ac-	.	.	.	.
2G/	com	2r	.	1d	fù
2G/	pa	2a/	.	.	.
=40	=40	=40	=40	=40	=40
0A	gna	1e	.	1c	m'è
.	.	2r	.	1c	quel
.	.	2f/	.	.	.
=41	=41	=41	=41	=41	=41
1G	.	0g	.	2d/	che
.	.	.	.	2d/	per
2A/	.	.	.	2c/	glo-
2B\	.	.	.	2d/	-ria
=42	=42	=42	=42	=42	=42
0c	-to?	2c/	-c'a	2r	.
.	.	2c/	ca-	2c/	tie-
.	.	2c/	val	2r	.
.	.	2c/	-lo	2g/	.
=43	=43	=43	=43	=43	=43
0r	.	2d/	ben	2f/	.
.	.	2d/	ac-	2.a/	.
.	.	2d/	com	.	.
.	.	.	.	2g/	.
.	.	2d/	pa	.	.
.	.	.	.	4f/	.
=44	=44	=44	=44	=44	=44
1A	Ma	0e	gna	0a	-ni
2r	.	.	.	.	.
2c\	un	.	.	.	.
=45	=45	=45	=45	=45	=45
1B-	fù,	1d	.	0r	.
1A	.	2e/	.	.	.
.	.	2f#/	.	.	.
=46	=46	=46	=46	=46	=46
1G	.	0g	-to?	1dd	E
1G	fù	.	.	2r	.
.	.	.	.	2b-\	.
=47	=47	=47	=47	=47	=47
1A	m'è	0r	.	2cc\	.
.	.	.	.	2a/	.
1F	quel	.	.	2r	.
.	.	.	.	4b-\	.
.	.	.	.	4a/	.
=48	=48	=48	=48	=48	=48
1c	che	1e	Ma	2g/	.
.	.	.	.	4a/	.
.	.	.	.	4g/	.
1c	per	2r	.	4a/	.
.	.	.	.	4g/	.
.	.	2g/	.	4f/	.
.	.	.	.	4g/	.
=49	=49	=49	=49	=49	=49
2d\	glo-	1f	.	1a	.
2c\	.	.	.	.	.
2B\	ri	1e	.	2r	.
2c\	-a	.	.	4cc\	.
.	.	.	.	4b\	.
=50	=50	=50	=50	=50	=50
0d	tie-	1d	un	2.a/	.
.	.	.	.	4g/	.
.	.	1d	fù	4a/	.
.	.	.	.	4g/	.
.	.	.	.	4f/	.
.	.	.	.	4g/	.
=51	=51	=51	=51	=51	=51
0A	.	1e	m'è	1e	fre-
.	.	1c	quel	6f/	-gi
.	.	.	.	6e/	.
.	.	.	.	6d/	.
.	.	.	.	4e/	e
.	.	.	.	4c/	.
=52	=52	=52	=52	=52	=52
0G	-ni	1g	che	1d	drap-
.	.	1g	per	2d/	-pi
.	.	.	.	2e/	e
=53	=53	=53	=53	=53	=53
0r	.	2a/	glo-	2d/	ton-
.	.	2g/	.	2e/	-di
.	.	2f/	ri	6g/	pa-
.	.	.	.	6f/	.
.	.	.	.	6e/	.
.	.	2g/	-a	4d/	la
.	.	.	.	4e/	.
=54	=54	=54	=54	=54	=54
1d	E	0a	tie-	1d	fre
2d\	fre-	.	.	2r	.
2d\	-gi,	.	.	4e/	.
.	.	.	.	4f/	.
=55	=55	=55	=55	=55	=55
1c	drap-	0e	.	2g/	.
.	.	.	.	1a	.
1c	e	.	.	.	.
.	.	.	.	[2g/	.
=56	=56	=56	=56	=56	=56
2B-\	ton-	0d	-ni	2g/]	.
2d\	-di	.	.	1f	.
2c\	pa-	.	.	.	.
2B-\	la	.	.	2g/	.
=57	=57	=57	=57	=57	=57
1A	fre	0r	.	1a	.
1G	.	.	.	2r	.
.	.	.	.	2d/	.
=58	=58	=58	=58	=58	=58
0A	.	1a	E	4f/	.
.	.	.	.	4e/	.
.	.	.	.	4d/	.
.	.	.	.	4e/	.
.	.	2a/	fre-	4f/	.
.	.	.	.	4g/	.
.	.	2a/	e	4e/	.
.	.	.	.	4f/	.
=59	=59	=59	=59	=59	=59
0c	.	1g	drap-	0g	.
.	.	1g	e	.	.
=60	=60	=60	=60	=60	=60
0d	.	2f/	ton-	0r	.
.	.	2a/	-di	.	.
.	.	2g/	pa-	.	.
.	.	2f/	la	.	.
=61	=61	=61	=61	=61	=61
1A	.	1e	fre	1a	.
1B-	.	1d	.	4g/	.
.	.	.	.	4a/	.
.	.	.	.	4f/	.
.	.	.	.	4g/	.
=62	=62	=62	=62	=62	=62
2A/	.	0e	.	2a/	.
1G	.	.	.	2r	.
.	.	.	.	2b-\	.
2F/	.	.	.	2cc\	.
=63	=63	=63	=63	=63	=63
0G	.	0g	.	1dd	.
.	.	.	.	1b-	.
=64	=64	=64	=64	=64	=64
0A	.	0a	.	2r	.
.	.	.	.	2cc\	.
.	.	.	.	1a	.
=65	=65	=65	=65	=65	=65
1c	.	1e	.	2r	.
.	.	.	.	2g/	.
1d	.	1f	.	4f/	.
.	.	.	.	4e/	.
.	.	.	.	2d/	.
=66	=66	=66	=66	=66	=66
0A	.	2e/	.	1e	.
.	.	1d	.	.	.
.	.	.	.	1f#	.
.	.	2c/	.	.	.
=67	=67	=67	=67	=67	=67
0G	-ni.	0d	-ni.	0g	-ni.
=68	=68	=68	=68	=68	=68
*M3/2	*	*M3/2	*	*M3/2	*
1.r	.	1.r	.	1.dd	Ah!
=69	=69	=69	=69	=69	=69
1.r	.	1.r	.	1.g	.
=70	=70	=70	=70	=70	=70
1.d	Ah!	1.r	.	1a	che
.	.	.	.	2a/	di-
=71	=71	=71	=71	=71	=71
1.G	.	1.r	.	2b-\	-chi
.	.	.	.	4dd\	di
.	.	.	.	2cc\	.
.	.	.	.	4b-\	.
=72	=72	=72	=72	=72	=72
1A	che	1.a	Ah!	1.a	te
2A/	di-	.	.	.	.
=73	=73	=73	=73	=73	=73
2B-\	-chi	1.d	.	2b-\	ch'a
4d\	di	.	.	2a/	quel
2c\	.	.	.	.	.
.	.	.	.	2g/	ch'i
4B-\	.	.	.	.	.
=74	=74	=74	=74	=74	=74
1.A	te	1e	che	1.cc	sen-
.	.	2e/	di-	.	.
=75	=75	=75	=75	=75	=75
2B-\	ch'a	2f/	-chi	1.dd	-to?
2A/	quel	4a/	di	.	.
.	.	2g/	.	.	.
2G/	ch'i	.	.	.	.
.	.	4f/	.	.	.
=76	=76	=76	=76	=76	=76
1.c	sen-	1.e	te	1.r	.
=77	=77	=77	=77	=77	=77
1.d	-to?	2f/	ch'a	1.r	.
.	.	2e/	quel	.	.
.	.	2d/	ch'i	.	.
=78	=78	=78	=78	=78	=78
1.r	.	1.g	sen-	2cc\	O-
.	.	.	.	2a/	.
.	.	.	.	2g/	.
=79	=79	=79	=79	=79	=79
1.r	.	1.a	-to?	2f/	-gni
.	.	.	.	2r	.
.	.	.	.	4a/	sta-
.	.	.	.	4b-\	.
=80	=80	=80	=80	=80	=80
2c\	O-	1.r	.	1cc	-to
2A/	.	.	.	.	.
2G/	-gni	.	.	2b\	di
=81	=81	=81	=81	=81	=81
2F/	.	1.r	.	2cc\	gen-
2r	.	.	.	2r	.
4A/	sta-	.	.	2cc\	-te
4B-\	.	.	.	.	.
=82	=82	=82	=82	=82	=82
1c	-to	2g/	O-	2g/	cer-
.	.	2e/	.	2a/	-ca
2B\	di	2d/	-gni	2b\	.
=83	=83	=83	=83	=83	=83
2c\	gen-	2c/	.	1.cc	ven-
2r	.	2r	.	.	.
2c\	-te	4e/	sta-	.	.
.	.	4f/	.	.	.
=84	=84	=84	=84	=84	=84
2G/	cer-	1g	-to	2b\	.
2A/	-ca	.	.	1a	.
2B\	.	2f/	di	.	.
=85	=85	=85	=85	=85	=85
1.c	ven-	2g/	gen-	1.g	.
.	.	2r	.	.	.
.	.	2g/	-te	.	.
=86	=86	=86	=86	=86	=86
2B\	.	2d/	cer-	2dd\	.
1A	.	2e/	-ca	2r	.
.	.	2f#/	.	2cc\	.
=87	=87	=87	=87	=87	=87
1.G	.	1.g	ven-	4dd\	.
.	.	.	.	4cc\	.
.	.	.	.	4b\	.
.	.	.	.	4a/	.
.	.	.	.	2g/	.
=88	=88	=88	=88	=88	=88
1.d	.	1.f	.	2a/	.
.	.	.	.	1b	.
=89	=89	=89	=89	=89	=89
0.c	-to.	0.g	-to.	0.cc	-to.
==	==	==	==	==	==
*-	*-	*-	*-	*-	*-
!!!ENC: Craig Stuart Sapp
!!!END: 2004/12/13/
